packages/venice-icons/assets/build-circle.svg

<svg width="24" height="24" viewBox="0 0 24 24" fill="none" xmlns="http://www.w3.org/2000/svg">
<path fill-rule="evenodd" clip-rule="evenodd" d="M12 2C6.48 2 2 6.48 2 12C2 17.52 6.48 22 12 22C17.52 22 22 17.52 22 12C22 6.48 17.52 2 12 2ZM12 20C7.59 20 4 16.41 4 12C4 7.59 7.59 4 12 4C16.41 4 20 7.59 20 12C20 16.41 16.41 20 12 20Z" fill="#333333"/>
<path fill-rule="evenodd" clip-rule="evenodd" d="M13.4898 11.3798C13.9198 10.1598 13.6598 8.73984 12.6798 7.75984C11.5698 6.64984 9.88984 6.45984 8.57984 7.16984L10.9298 9.51984L9.51984 10.9298L7.16984 8.57984C6.45984 9.89984 6.64984 11.5698 7.75984 12.6798C8.73984 13.6598 10.1598 13.9198 11.3798 13.4898L14.7898 16.8998C14.9898 17.0998 15.2998 17.0998 15.4998 16.8998L16.8998 15.4998C17.0998 15.2998 17.0998 14.9898 16.8998 14.7898L13.4898 11.3798Z" fill="#333333"/>
</svg>

<svg xmlns="http://www.w3.org/2000/svg" height="24" width="24"><g fill-rule="evenodd"><path d="M12 2C6.48 2 2 6.48 2 12s4.48 10 10 10 10-4.48 10-10S17.52 2 12 2zm0 18c-4.41 0-8-3.59-8-8s3.59-8 8-8 8 3.59 8 8-3.59 8-8 8z"/><path d="M13.49 11.38c.43-1.22.17-2.64-.81-3.62a3.468 3.468 0 0 0-4.1-.59l2.35 2.35-1.41 1.41-2.35-2.35c-.71 1.32-.52 2.99.59 4.1.98.98 2.4 1.24 3.62.81l3.41 3.41c.2.2.51.2.71 0l1.4-1.4c.2-.2.2-.51 0-.71l-3.41-3.41z"/></g></svg>
